X:28
T:Da Auld Resting Chair 
C:Joe Buchanan's Scottish Tome - Page 501.1
I:501 1
Z:Jo Wegstein
C:Tom Anderson
R:Barndance
L:1/8
M:4/4
K:Gmaj
D2  | "G"(B2> c2) "D"(A2> B2) | "G"(G2 D2) (B,2G,2) | "C"(C2 A2) "G"(B,2G2) | "A"(^CE)(AG) "D"F2  D2  |
"G"{c}(B2> c2) "D"(A2> B2) | "G"(G2 D2) (B,2G,2) | "C"(C2 A2) "D"(D2 F2) | "D7"(G4"G"G2) :|
d2  | "Am"(cB)(AG) "G"g2> d2  | "C"e2  g2  "G"d2  B2  | "Am"{d}(c2> d2) "G"(B2 G2) | "A"E2  (AG) "D"F2  D2  |
"Am"(cB)(AG) "G"g2> d2  | "C"e2  g2  "G"d2  B2  | "Am"c2  (de) "D"d2 F2  | "D7"G4- "G"G2 d2  |
"Am"(cB)(AG) "G"g2> d2  | "C"e2  g2  "G"d2  B2  | "Am"{d}(c2> d2) (B2 G2) | (^CE)(AG) "D"F2  D2  |
"G"{c}(B2> c2) "D7"(A2 B2) | "G"(G2 D2) (B,2G,2) | "C"(C2 A,2) "D"(D2 F2) | "D7"G4- "G"G2 |]
